X: 1
T: I Love my Jean
C: Trad; words by Robert Burns
R: air
Z: 2010 John Chambers <jc:trillian.mit.edu>
M: C
L: 1/4
K: G
D \
| "G"G>A GD | "C"EG "D7"Ac | "G"B>A GD | "C"E2- "D7"ED \
| "G"G>A GD | "C"EG "D7"Ac | "Em"B>A "A7"GE | "D"D3"D7"c ||
| "G"B>c dB | "C"c>B "D7"Ac | "G"B>c "G7"dD | "C"E2- "D7"Ec \
| "G"B>c "Em"dB | "Am"eA "D7"Ac | "Em"B>A "A7"GE | "D"D3 |]
